images/item-area-icon2.svg

<svg width="32" height="40" viewBox="0 0 32 40" fill="none" xmlns="http://www.w3.org/2000/svg">
<path fill-rule="evenodd" clip-rule="evenodd" d="M7.33341 11.6666C6.41294 11.6666 5.66675 12.4128 5.66675 13.3333V18.6666C5.66675 19.5871 6.41294 20.3333 7.33341 20.3333H12.6667C13.5872 20.3333 14.3334 19.5871 14.3334 18.6666V13.3333C14.3334 12.4128 13.5872 11.6666 12.6667 11.6666H7.33341ZM3.66675 13.3333C3.66675 11.3082 5.30837 9.66663 7.33341 9.66663H12.6667C14.6918 9.66663 16.3334 11.3082 16.3334 13.3333V18.6666C16.3334 20.6917 14.6918 22.3333 12.6667 22.3333H7.33341C5.30837 22.3333 3.66675 20.6917 3.66675 18.6666V13.3333Z" fill="#2667FF"/>
<path fill-rule="evenodd" clip-rule="evenodd" d="M7.33341 27.6666C6.41294 27.6666 5.66675 28.4128 5.66675 29.3333V34.6666C5.66675 35.5871 6.41294 36.3333 7.33341 36.3333H12.6667C13.5872 36.3333 14.3334 35.5871 14.3334 34.6666V29.3333C14.3334 28.4128 13.5872 27.6666 12.6667 27.6666H7.33341ZM3.66675 29.3333C3.66675 27.3082 5.30837 25.6666 7.33341 25.6666H12.6667C14.6918 25.6666 16.3334 27.3082 16.3334 29.3333V34.6666C16.3334 36.6917 14.6918 38.3333 12.6667 38.3333H7.33341C5.30837 38.3333 3.66675 36.6917 3.66675 34.6666V29.3333Z" fill="#2667FF"/>
<path fill-rule="evenodd" clip-rule="evenodd" d="M18.3335 29.3333C18.3335 28.781 18.7812 28.3333 19.3335 28.3333H27.3335C27.8858 28.3333 28.3335 28.781 28.3335 29.3333C28.3335 29.8855 27.8858 30.3333 27.3335 30.3333H19.3335C18.7812 30.3333 18.3335 29.8855 18.3335 29.3333Z" fill="#2667FF"/>
<path fill-rule="evenodd" clip-rule="evenodd" d="M18.3335 34.6666C18.3335 34.1143 18.7812 33.6666 19.3335 33.6666H24.6668C25.2191 33.6666 25.6668 34.1143 25.6668 34.6666C25.6668 35.2189 25.2191 35.6666 24.6668 35.6666H19.3335C18.7812 35.6666 18.3335 35.2189 18.3335 34.6666Z" fill="#2667FF"/>
<path fill-rule="evenodd" clip-rule="evenodd" d="M18.3335 18.6666C18.3335 18.1143 18.7812 17.6666 19.3335 17.6666H24.6668C25.2191 17.6666 25.6668 18.1143 25.6668 18.6666C25.6668 19.2189 25.2191 19.6666 24.6668 19.6666H19.3335C18.7812 19.6666 18.3335 19.2189 18.3335 18.6666Z" fill="#2667FF"/>
<path fill-rule="evenodd" clip-rule="evenodd" d="M18.3335 13.3333C18.3335 12.781 18.7812 12.3333 19.3335 12.3333H27.3335C27.8858 12.3333 28.3335 12.781 28.3335 13.3333C28.3335 13.8855 27.8858 14.3333 27.3335 14.3333H19.3335C18.7812 14.3333 18.3335 13.8855 18.3335 13.3333Z" fill="#2667FF"/>
</svg>

<svg xmlns="http://www.w3.org/2000/svg" width="32" height="40" fill="none"><path fill="#2667FF" fill-rule="evenodd" d="M7.333 11.667c-.92 0-1.666.746-1.666 1.666v5.334c0 .92.746 1.666 1.666 1.666h5.334c.92 0 1.666-.746 1.666-1.666v-5.334c0-.92-.746-1.666-1.666-1.666H7.333Zm-3.666 1.666a3.667 3.667 0 0 1 3.666-3.666h5.334a3.667 3.667 0 0 1 3.666 3.666v5.334a3.667 3.667 0 0 1-3.666 3.666H7.333a3.667 3.667 0 0 1-3.666-3.666v-5.334ZM7.333 27.667c-.92 0-1.666.746-1.666 1.666v5.334c0 .92.746 1.666 1.666 1.666h5.334c.92 0 1.666-.746 1.666-1.666v-5.334c0-.92-.746-1.666-1.666-1.666H7.333Zm-3.666 1.666a3.667 3.667 0 0 1 3.666-3.666h5.334a3.667 3.667 0 0 1 3.666 3.666v5.334a3.667 3.667 0 0 1-3.666 3.666H7.333a3.667 3.667 0 0 1-3.666-3.666v-5.334ZM18.334 29.333a1 1 0 0 1 1-1h8a1 1 0 1 1 0 2h-8a1 1 0 0 1-1-1ZM18.334 34.667a1 1 0 0 1 1-1h5.333a1 1 0 1 1 0 2h-5.334a1 1 0 0 1-1-1ZM18.334 18.667a1 1 0 0 1 1-1h5.333a1 1 0 1 1 0 2h-5.334a1 1 0 0 1-1-1ZM18.334 13.333a1 1 0 0 1 1-1h8a1 1 0 1 1 0 2h-8a1 1 0 0 1-1-1Z" clip-rule="evenodd"/></svg>
